!!!OTL: 679. Urians Reise um die Welt.
!!!COM: K. Fr. Zelter
!!!ODT: 1793
!!!ARE: Europa, Mitteleuropa, Deutschland
!!!SCT: B0679
!!!TXL: @@DE
!!!YEM: Copyright 1995, estate of Helmut Schaffrath.
**kern	**text
*ICvox	*
*Ivox	*
*clefG2	*
*M4/4	*
*met(c)	*
*k[b-e-]	*
*B-:	*
!LO:TX:a:t=Solo. (Vortrag recitierend.)	!
!LO:TX:a:t=Mäßig bewegt.	!
{4f	Wenn
=1	=1
4b-	Je-
4b-	-mand
4b-	ei-
4b-	-ne
=2	=2
4.dd	Rei-
8b-	-ſe
4f}	thut,*
{4b-	ſo
=3	=3
4f	kann
4d	er
4e-	was
4c	er-
=4	=4
2d	-ʒäh-
4B-}	-len
{8dL	drum
8B-J	.
=5	=5
4f	nahm
4f	ich
4f	mei-
8gL	-nen
8aJ	.
=6	=6
4b-	Stock
4b-	und
4b-}	Hut
{4g	und
=7	=7
4a	that
8fL	das
8aJ	.
4cc	Rei-
4c	-ſen
=8	=8
2f	wäh-
4f	-len.
8r}	.
=||	=||
!LO:TX:a:t=Chor.	!
{8f	Da
=9	=9
8b-	hat
8a	er
8b-	gar
8cc	nicht
4dd	ü-
4b-	-bel,
=10	=10
4cc	gar
4dd	nicht
4ee-	ü-
4cc}	-bel,
=11	=11
{4dd	gar
4ee-	nicht
4ff	ü-
4dd	-bel
=12	=12
4cc	dran
4cc	ge-
4cc	-than
8r}	.
{8dd	er-
=13	=13
(4ee-	-ʒähl'
4dd)	.
4ee-	er
4ff	doch
=14	=14
2gg	wei-
8ffL	-ter,
8ee-}J	.
{8ddL	Herr
8ccJ	.
=15	=15
2b-	U-
2f	-ri-
=16	=16
2B-	-an!
4r}	.
==	==
!!!AGN: Scherz - Lied, Erzaehlung
!!!ONB: ESAC (Essen Associative Code) Database: BOEHME
!!!AMT: simple quadruple
!!!AIN: vox
!!!EED: Helmut Schaffrath
!!!EEV: 1.0
!!!GTL: Scherzlieder und Gemischtes
!!@@COMMENT:"Gedicht von Matthias Claudius 1785. Ʒuerſt im "Voſſ. Muſenalmanach für 1786". S. 166. Das Lied hat auch Beethoven (op. 54) komponirt.
!!* Die Urbedeutung von thun - machen, verrichten, hat Claudius gut verwendet, wenn auch überkluge Leute jetʒt 
!!darüber lachen mögen.
!!** Das Original hat durchweg im Refrain die niederd. Form "verʒählt ſtatt erʒählt."
!!@@END:
!!!Text: M. Claudius
!!!URL-scan: https://archive.org/details/BoehmeVtLieder1895/page/n529/mode/2up
!!!ENC: Anna Maria Matuszewska
!!!EEV: 2024/17/07
*-	*-
